images/vietnam-consumption.svg

<svg xmlns="http://www.w3.org/2000/svg" width="1200" height="500" class="highcharts-root" font-family="'Lucida Grande','Lucida Sans Unicode',Arial,Helvetica,sans-serif" font-size="12" style="background-color:transparent">
  <defs>
    <clipPath id="a">
      <path fill="none" d="M0 0h1120v398H0z"/>
    </clipPath>
  </defs>
  <rect width="1180" height="500" fill="rgba(255, 255, 255, 0.0)" class="highcharts-background" rx="0" ry="0"/>
  <path fill="none" d="M50 10h1120v398H50z" class="highcharts-plot-background"/>
  <g class="highcharts-grid highcharts-xaxis-grid" data-z-index="1">
    <path fill="none" d="M60.5 10v398M160.5 10v398M260.5 10v398M359.5 10v398M459.5 10v398M559.5 10v398M659.5 10v398M759.5 10v398M859.5 10v398M958.5 10v398M1058.5 10v398M1158.5 10v398" class="highcharts-grid-line" data-z-index="1"/>
  </g>
  <g class="highcharts-grid highcharts-yaxis-grid" data-z-index="1">
    <path fill="none" stroke="rgba(216,216,216,1)" stroke-dasharray="8,3" d="M50 408.5h1120M50 351.5h1120M50 294.5h1120M50 237.5h1120M50 181.5h1120M50 124.5h1120M50 67.5h1120M50 9.5h1120" class="highcharts-grid-line" data-z-index="1"/>
  </g>
  <path fill="none" d="M50 10h1120v398H50z" class="highcharts-plot-border" data-z-index="1"/>
  <g class="highcharts-axis highcharts-xaxis" data-z-index="2">
    <path fill="none" d="M50 408h1120" class="highcharts-axis-line" data-z-index="7"/>
  </g>
  <g class="highcharts-axis highcharts-yaxis" data-z-index="2">
    <path fill="none" d="M50 10v398" class="highcharts-axis-line" data-z-index="7"/>
  </g>
  <g class="highcharts-series-group" data-z-index="3">
    <g class="highcharts-series highcharts-series-0 highcharts-area-series" clip-path="url(#a)" data-z-index=".1" transform="translate(50 10)">
      <path fill="rgba(121,45,130,0.75)" d="M10.98 384.763l99.748-63.376 100.02 6.516 99.747-38.533 99.748-31.734 99.747 14.542 100.02-12.561 99.747-40.345 99.748-61.24 99.747-22.956 100.02 2.527 99.748-72.548V398H10.98" class="highcharts-area" data-z-index="0"/>
      <path fill="none" stroke="#792D82" stroke-linecap="round" stroke-linejoin="round" stroke-width="2" d="M10.98 384.763l99.748-63.376 100.02 6.516 99.747-38.533 99.748-31.734 99.747 14.542 100.02-12.561 99.747-40.345 99.748-61.24 99.747-22.956 100.02 2.527 99.748-72.548" class="highcharts-graph" data-z-index="1"/>
      <path fill="none" stroke="rgba(192,192,192,0.0001)" stroke-linejoin="round" stroke-width="22" d="M.98 384.763h10l99.748-63.376 100.02 6.516 99.747-38.533 99.748-31.734 99.747 14.542 100.02-12.561 99.747-40.345 99.748-61.24 99.747-22.956 100.02 2.527 99.748-72.548h10" class="highcharts-tracker-line" data-z-index="2"/>
    </g>
  </g>
  <g class="highcharts-data-labels highcharts-series-0 highcharts-area-series" data-z-index="6">
    <text x="5" y="22" color="#000" data-z-index="1" font-size="18" font-weight="400" transform="translate(45 363)">
      <tspan x="5" y="22" fill="#FFF" stroke="#FFF" stroke-linejoin="round" stroke-width="2" class="highcharts-text-outline">6</tspan><tspan x="5" y="22">6</tspan>
    </text>
    <text x="5" y="22" color="#000" data-z-index="1" font-size="18" font-weight="400" transform="translate(124 299)">
      <tspan x="5" y="22" fill="#FFF" stroke="#FFF" stroke-linejoin="round" stroke-width="2" class="highcharts-text-outline">12</tspan><tspan x="5" y="22">12</tspan>
    </text>
    <text x="5" y="22" color="#000" data-z-index="1" font-size="18" font-weight="400" transform="translate(224 306)">
      <tspan x="5" y="22" fill="#FFF" stroke="#FFF" stroke-linejoin="round" stroke-width="2" class="highcharts-text-outline">11</tspan><tspan x="5" y="22">11</tspan>
    </text>
    <text x="5" y="22" color="#000" data-z-index="1" font-size="18" font-weight="400" transform="translate(324 267)">
      <tspan x="5" y="22" fill="#FFF" stroke="#FFF" stroke-linejoin="round" stroke-width="2" class="highcharts-text-outline">15</tspan><tspan x="5" y="22">15</tspan>
    </text>
    <text x="5" y="22" color="#000" data-z-index="1" font-size="18" font-weight="400" transform="translate(424 236)">
      <tspan x="5" y="22" fill="#FFF" stroke="#FFF" stroke-linejoin="round" stroke-width="2" class="highcharts-text-outline">17</tspan><tspan x="5" y="22">17</tspan>
    </text>
    <text x="5" y="22" color="#000" data-z-index="1" font-size="18" font-weight="400" transform="translate(524 250)">
      <tspan x="5" y="22" fill="#FFF" stroke="#FFF" stroke-linejoin="round" stroke-width="2" class="highcharts-text-outline">16</tspan><tspan x="5" y="22">16</tspan>
    </text>
    <text x="5" y="22" color="#000" data-z-index="1" font-size="18" font-weight="400" transform="translate(624 238)">
      <tspan x="5" y="22" fill="#FFF" stroke="#FFF" stroke-linejoin="round" stroke-width="2" class="highcharts-text-outline">17</tspan><tspan x="5" y="22">17</tspan>
    </text>
    <text x="5" y="22" color="#000" data-z-index="1" font-size="18" font-weight="400" transform="translate(723 197)">
      <tspan x="5" y="22" fill="#FFF" stroke="#FFF" stroke-linejoin="round" stroke-width="2" class="highcharts-text-outline">21</tspan><tspan x="5" y="22">21</tspan>
    </text>
    <text x="5" y="22" color="#000" data-z-index="1" font-size="18" font-weight="400" transform="translate(823 136)">
      <tspan x="5" y="22" fill="#FFF" stroke="#FFF" stroke-linejoin="round" stroke-width="2" class="highcharts-text-outline">26</tspan><tspan x="5" y="22">26</tspan>
    </text>
    <text x="5" y="22" color="#000" data-z-index="1" font-size="18" font-weight="400" transform="translate(923 113)">
      <tspan x="5" y="22" fill="#FFF" stroke="#FFF" stroke-linejoin="round" stroke-width="2" class="highcharts-text-outline">28</tspan><tspan x="5" y="22">28</tspan>
    </text>
    <text x="5" y="22" color="#000" data-z-index="1" font-size="18" font-weight="400" transform="translate(1023 116)">
      <tspan x="5" y="22" fill="#FFF" stroke="#FFF" stroke-linejoin="round" stroke-width="2" class="highcharts-text-outline">28</tspan><tspan x="5" y="22">28</tspan>
    </text>
    <text x="5" y="22" color="#000" data-z-index="1" font-size="18" font-weight="400" transform="translate(1102 43)">
      <tspan x="5" y="22" fill="#FFF" stroke="#FFF" stroke-linejoin="round" stroke-width="2" class="highcharts-text-outline">34</tspan><tspan x="5" y="22">34</tspan>
    </text>
  </g>
  <g class="highcharts-legend" data-z-index="7" transform="translate(276 452)">
    <rect width="627" height="33" fill="none" class="highcharts-legend-box" rx="0" ry="0"/>
    <g class="highcharts-legend-item highcharts-area-series highcharts-color-undefined highcharts-series-0" data-z-index="1">
      <text x="27" y="21" fill="#7c7c7c" color="#7c7c7c" cursor="pointer" data-z-index="2" font-size="18" font-weight="700" transform="translate(8 3)">
        <tspan>Consumption Volume: Coal: Vietnam</tspan>
      </text>
      <path fill="#792D82" d="M8 11h22v14H8z" class="highcharts-point" data-z-index="3"/>
    </g>
  </g>
  <g fill="#707070" class="highcharts-axis-labels highcharts-xaxis-labels" color="#707070" cursor="default" data-z-index="7" font-size="20" text-anchor="middle">
    <text x="60.98" y="434">
      2007
    </text>
    <text x="160.728" y="434">
      2008
    </text>
    <text x="260.748" y="434">
      2009
    </text>
    <text x="360.495" y="434">
      2010
    </text>
    <text x="460.243" y="434">
      2011
    </text>
    <text x="559.99" y="434">
      2012
    </text>
    <text x="660.01" y="434">
      2013
    </text>
    <text x="759.757" y="434">
      2014
    </text>
    <text x="859.505" y="434">
      2015
    </text>
    <text x="959.252" y="434">
      2016
    </text>
    <text x="1059.272" y="434">
      2017
    </text>
    <text x="1159.02" y="434">
      2018
    </text>
  </g>
  <g fill="#707070" class="highcharts-axis-labels highcharts-yaxis-labels" color="#707070" cursor="default" data-z-index="7" font-size="20" text-anchor="end">
    <text x="35" y="414">
      5
    </text>
    <text x="35" y="357">
      10
    </text>
    <text x="35" y="300">
      15
    </text>
    <text x="35" y="243">
      20
    </text>
    <text x="35" y="187">
      25
    </text>
    <text x="35" y="130">
      30
    </text>
    <text x="35" y="73">
      35
    </text>
    <text x="35" y="16">
      40
    </text>
  </g>
  <text x="1170" y="495" fill="#999" class="highcharts-credits" color="#999" cursor="pointer" data-z-index="8" text-anchor="end">
    <tspan>SOURCE: WWW.CEICDATA.COM | BP PLC</tspan>
  </text>
</svg>

<svg xmlns="http://www.w3.org/2000/svg" width="1200" height="500" class="highcharts-root" font-family="'Lucida Grande','Lucida Sans Unicode',Arial,Helvetica,sans-serif" font-size="12" style="background-color:transparent"><defs><clipPath id="a"><path fill="none" d="M0 0h1120v398H0z"/></clipPath></defs><rect width="1180" height="500" fill="rgba(255, 255, 255, 0.0)" class="highcharts-background" rx="0" ry="0"/><path fill="none" d="M50 10h1120v398H50z" class="highcharts-plot-background"/><g class="highcharts-grid highcharts-xaxis-grid" data-z-index="1"><path fill="none" d="M60.5 10v398m100-398v398m100-398v398m99-398v398m100-398v398m100-398v398m100-398v398m100-398v398m100-398v398m99-398v398m100-398v398m100-398v398" class="highcharts-grid-line" data-z-index="1"/></g><g class="highcharts-grid highcharts-yaxis-grid" data-z-index="1"><path fill="none" stroke="rgba(216,216,216,1)" stroke-dasharray="8,3" d="M50 408.5h1120m-1120-57h1120m-1120-57h1120m-1120-57h1120m-1120-56h1120m-1120-57h1120M50 67.5h1120M50 9.5h1120" class="highcharts-grid-line" data-z-index="1"/></g><path fill="none" d="M50 10h1120v398H50z" class="highcharts-plot-border" data-z-index="1"/><g class="highcharts-axis highcharts-xaxis" data-z-index="2"><path fill="none" d="M50 408h1120" class="highcharts-axis-line" data-z-index="7"/></g><g class="highcharts-axis highcharts-yaxis" data-z-index="2"><path fill="none" d="M50 10v398" class="highcharts-axis-line" data-z-index="7"/></g><g class="highcharts-series-group" data-z-index="3"><g class="highcharts-series highcharts-series-0 highcharts-area-series" clip-path="url(#a)" data-z-index=".1" transform="translate(50 10)"><path fill="rgba(121,45,130,0.75)" d="M10.98 384.763l99.748-63.376 100.02 6.516 99.747-38.533 99.748-31.734 99.747 14.542 100.02-12.561 99.747-40.345 99.748-61.24 99.747-22.956 100.02 2.527 99.748-72.548V398H10.98" class="highcharts-area" data-z-index="0"/><path fill="none" stroke="#792D82" stroke-linecap="round" stroke-linejoin="round" stroke-width="2" d="M10.98 384.763l99.748-63.376 100.02 6.516 99.747-38.533 99.748-31.734 99.747 14.542 100.02-12.561 99.747-40.345 99.748-61.24 99.747-22.956 100.02 2.527 99.748-72.548" class="highcharts-graph" data-z-index="1"/><path fill="none" stroke="rgba(192,192,192,0.0001)" stroke-linejoin="round" stroke-width="22" d="M.98 384.763h10l99.748-63.376 100.02 6.516 99.747-38.533 99.748-31.734 99.747 14.542 100.02-12.561 99.747-40.345 99.748-61.24 99.747-22.956 100.02 2.527 99.748-72.548h10" class="highcharts-tracker-line" data-z-index="2"/></g></g><g class="highcharts-data-labels highcharts-series-0 highcharts-area-series" data-z-index="6" color="#000" font-size="18" font-weight="400"><text x="5" y="22" data-z-index="1" transform="translate(45 363)"><tspan x="5" y="22" fill="#FFF" stroke="#FFF" stroke-linejoin="round" stroke-width="2" class="highcharts-text-outline">6</tspan><tspan x="5" y="22">6</tspan></text><text x="5" y="22" data-z-index="1" transform="translate(124 299)"><tspan x="5" y="22" fill="#FFF" stroke="#FFF" stroke-linejoin="round" stroke-width="2" class="highcharts-text-outline">12</tspan><tspan x="5" y="22">12</tspan></text><text x="5" y="22" data-z-index="1" transform="translate(224 306)"><tspan x="5" y="22" fill="#FFF" stroke="#FFF" stroke-linejoin="round" stroke-width="2" class="highcharts-text-outline">11</tspan><tspan x="5" y="22">11</tspan></text><text x="5" y="22" data-z-index="1" transform="translate(324 267)"><tspan x="5" y="22" fill="#FFF" stroke="#FFF" stroke-linejoin="round" stroke-width="2" class="highcharts-text-outline">15</tspan><tspan x="5" y="22">15</tspan></text><text x="5" y="22" data-z-index="1" transform="translate(424 236)"><tspan x="5" y="22" fill="#FFF" stroke="#FFF" stroke-linejoin="round" stroke-width="2" class="highcharts-text-outline">17</tspan><tspan x="5" y="22">17</tspan></text><text x="5" y="22" data-z-index="1" transform="translate(524 250)"><tspan x="5" y="22" fill="#FFF" stroke="#FFF" stroke-linejoin="round" stroke-width="2" class="highcharts-text-outline">16</tspan><tspan x="5" y="22">16</tspan></text><text x="5" y="22" data-z-index="1" transform="translate(624 238)"><tspan x="5" y="22" fill="#FFF" stroke="#FFF" stroke-linejoin="round" stroke-width="2" class="highcharts-text-outline">17</tspan><tspan x="5" y="22">17</tspan></text><text x="5" y="22" data-z-index="1" transform="translate(723 197)"><tspan x="5" y="22" fill="#FFF" stroke="#FFF" stroke-linejoin="round" stroke-width="2" class="highcharts-text-outline">21</tspan><tspan x="5" y="22">21</tspan></text><text x="5" y="22" data-z-index="1" transform="translate(823 136)"><tspan x="5" y="22" fill="#FFF" stroke="#FFF" stroke-linejoin="round" stroke-width="2" class="highcharts-text-outline">26</tspan><tspan x="5" y="22">26</tspan></text><text x="5" y="22" data-z-index="1" transform="translate(923 113)"><tspan x="5" y="22" fill="#FFF" stroke="#FFF" stroke-linejoin="round" stroke-width="2" class="highcharts-text-outline">28</tspan><tspan x="5" y="22">28</tspan></text><text x="5" y="22" data-z-index="1" transform="translate(1023 116)"><tspan x="5" y="22" fill="#FFF" stroke="#FFF" stroke-linejoin="round" stroke-width="2" class="highcharts-text-outline">28</tspan><tspan x="5" y="22">28</tspan></text><text x="5" y="22" data-z-index="1" transform="translate(1102 43)"><tspan x="5" y="22" fill="#FFF" stroke="#FFF" stroke-linejoin="round" stroke-width="2" class="highcharts-text-outline">34</tspan><tspan x="5" y="22">34</tspan></text></g><g class="highcharts-legend" data-z-index="7" transform="translate(276 452)"><rect width="627" height="33" fill="none" class="highcharts-legend-box" rx="0" ry="0"/><g class="highcharts-legend-item highcharts-area-series highcharts-color-undefined highcharts-series-0" data-z-index="1"><text x="27" y="21" fill="#7c7c7c" color="#7c7c7c" cursor="pointer" data-z-index="2" font-size="18" font-weight="700" transform="translate(8 3)"><tspan>Consumption Volume: Coal: Vietnam</tspan></text><path fill="#792D82" d="M8 11h22v14H8z" class="highcharts-point" data-z-index="3"/></g></g><g fill="#707070" class="highcharts-axis-labels highcharts-xaxis-labels" color="#707070" cursor="default" data-z-index="7" font-size="20" text-anchor="middle"><text x="60.98" y="434">2007</text><text x="160.728" y="434">2008</text><text x="260.748" y="434">2009</text><text x="360.495" y="434">2010</text><text x="460.243" y="434">2011</text><text x="559.99" y="434">2012</text><text x="660.01" y="434">2013</text><text x="759.757" y="434">2014</text><text x="859.505" y="434">2015</text><text x="959.252" y="434">2016</text><text x="1059.272" y="434">2017</text><text x="1159.02" y="434">2018</text></g><g fill="#707070" class="highcharts-axis-labels highcharts-yaxis-labels" color="#707070" cursor="default" data-z-index="7" font-size="20" text-anchor="end"><text x="35" y="414">5</text><text x="35" y="357">10</text><text x="35" y="300">15</text><text x="35" y="243">20</text><text x="35" y="187">25</text><text x="35" y="130">30</text><text x="35" y="73">35</text><text x="35" y="16">40</text></g><text x="1170" y="495" fill="#999" class="highcharts-credits" color="#999" cursor="pointer" data-z-index="8" text-anchor="end"><tspan>SOURCE: WWW.CEICDATA.COM | BP PLC</tspan></text></svg>
